X:1
T: Balcomie House
C:
R:Jig
Q:180
K:F
M:6/8
L:1/16
|:AB|c4c2 A2c2f2|c4d2 c2A2F2|G4G2 G3FG2|A2B2A2 G2A2B2|c4c2 A2c2f2|c4d2 c2A2F2|C2E2G2 B2G2E2|F4A2 F4A,B,|
C4C2 A,2C2F2|D4D2 B,2D2F2|E4E2 C2E2G2|F4F2 C2F2A2|C4C2 A,2C2F2|D4D2 B,2D2F2|C2E2G2 B2G2E2|F4A2 F4A,B,|
C4C2 A,2C2F2|D4D2 B,2D2F2|E4E2 C2E2G2|F4F2 C2F2A2|C4C2 A,2C2F2|D4D2 B,2D2F2|C2E2G2 B2G2E2|F4A2 F4AB|
c4c2 A2c2f2|c4d2 c2A2F2|G4G2 G3FG2|A2B2A2 G2A2B2|c4c2 A2c2f2|c4d2 c2A2F2|C2E2G2 B2G2E2|1F6 E6:||2F6 F4||
